X: 1
T: Dreaming of Home
R: waltz
Z: 2012 John Chambers <jc:trillian.mit.edu>
S: handwritten MS from Rich Armstrong
N: Note: 3- and 6-bar phrases.
M: 3/4
L: 1/4
K: D
f |\
"D"fa>f | d3 | A2d | "A7"ede |\
"D"f3 | A2f | "G"gBg | "D"f3 |\
"Bm"d3 |1 "E7"Bcd | "A7"e3 | e2 :|
[2 "A7"eBc | "D"d3 | d2 |]\
d |\
"D"dcd | "A7"e3 |\
A2e | ede | "D"f3 | A2f |\
"G"gBg | "D"f3 | "Bm"d3 | "E7"Bcd |
"A7"e3 | e2f | "D"fa>f | d3 |\
A2d | "A7"ede | "D"f3 | A2f |\
"G"gBg | "D"f3 | "Bm"d3 | "A7"eBc |\
"D"d3- | d2 |]
